X:1
T:Bjoernlaten
A:Schweden
S:Transkription(S.W.) CD Hedningarna (1.CD)
Z:abc transcription Simon Wascher
F:http://simonwascher.info/
M:3/4
L:1/8
K:D dorian
A2d2d2 | d2cBc2 | F2F2G2 | A6 |
A2d2d2 | d2cBc2 | F2F2G2 | A6 ||
F2F2G2 | A2cB AG | F2F2G2 | A2cB AG |
E2E2F2 | _B6 | A6- | A6 |]
